src/hbcore/resources/themes/icons/hbdefault/scalable/qtg_status_gps.svg

<?xml version="1.0" encoding="UTF-8" standalone="no"?>
<!DOCTYPE svg PUBLIC "-//W3C//DTD SVG 1.1 Tiny//EN" "http://www.w3.org/Graphics/SVG/1.1/DTD/svg11-tiny.dtd">
<svg xmlns="http://www.w3.org/2000/svg" xmlns:xlink="http://www.w3.org/1999/xlink" baseProfile="tiny" height="16px" version="1.1" viewBox="0 0 16 16" width="16px" x="0px" y="0px">
<rect fill="none" height="16" width="16"/>
<path d="M8.777,4.889l0.687,0.687-0.472,0.471c-0.625-0.317-1.36-0.316-1.985,0l-1.249-1.249-0.96,0.959,1.249,1.25c-0.315,0.624-0.316,1.359,0,1.983l-0.471,0.474-0.687-0.687-3.889,3.893,2.334,2.33,3.889-3.889-0.687-0.688,0.472-0.471c0.625,0.316,1.36,0.315,1.984-0.001l1.25,1.25,0.96-0.96-1.25-1.25c0.316-0.623,0.317-1.36,0.001-1.983l0.471-0.473,0.688,0.686,3.89-3.887-2.33-2.333-3.893,3.889z"/>
<rect height="0.831" transform="matrix(0.7069 -0.7073 0.7073 0.7069 -1.7029 4.1127)" width="3.299" x="2.461" y="3.696"/>
<rect height="0.831" transform="matrix(-0.7071 0.7071 -0.7071 -0.7071 28.7026 11.8883)" width="3.298" x="10.24" y="11.47"/>
</svg>

<?xml version="1.0" encoding="UTF-8"?>
<!DOCTYPE svg PUBLIC "-//W3C//DTD SVG 1.1 Tiny//EN" "http://www.w3.org/Graphics/SVG/1.1/DTD/svg11-tiny.dtd">
<svg baseProfile="tiny" height="16px" version="1.1" viewBox="0 0 16 16" width="16px" x="0px" xmlns="http://www.w3.org/2000/svg" xmlns:xlink="http://www.w3.org/1999/xlink" y="0px">
<rect fill="none" height="16" width="16"/>
<path d="M8.777,4.889l0.687,0.687L8.992,6.047c-0.625-0.317-1.36-0.316-1.985,0L5.758,4.798l-0.96,0.959l1.249,1.25  c-0.315,0.624-0.316,1.359,0,1.983L5.576,9.464L4.889,8.777L1,12.666L3.334,15l3.889-3.889l-0.687-0.688l0.472-0.471  c0.625,0.316,1.36,0.315,1.984-0.001l1.25,1.25l0.96-0.96l-1.25-1.25c0.316-0.623,0.317-1.36,0.001-1.983l0.471-0.473l0.688,0.686  L15,3.333L12.666,1L8.777,4.889z"/>
<rect height="0.831" transform="matrix(0.7069 -0.7073 0.7073 0.7069 -1.7029 4.1127)" width="3.299" x="2.461" y="3.696"/>
<rect height="0.831" transform="matrix(-0.7071 0.7071 -0.7071 -0.7071 28.7026 11.8883)" width="3.298" x="10.24" y="11.473"/>
</svg>
